src/assets/filled/SidebarLeft.svg

<svg width="24" height="24" viewBox="0 0 24 24"  xmlns="http://www.w3.org/2000/svg">
<path d="M2 7.81027V16.1903C2 17.6803 2.36 18.9203 3.05 19.8703C3.34 20.2903 3.71 20.6603 4.13 20.9503C4.95 21.5503 5.99 21.9003 7.22 21.9803V2.03027C3.94 2.24027 2 4.37027 2 7.81027Z" />
<path d="M20.95 4.13C20.66 3.71 20.29 3.34 19.87 3.05C18.92 2.36 17.68 2 16.19 2H8.71997V22H16.19C19.83 22 22 19.83 22 16.19V7.81C22 6.32 21.64 5.08 20.95 4.13ZM15.5 14.03C15.79 14.32 15.79 14.8 15.5 15.09C15.35 15.24 15.16 15.31 14.97 15.31C14.78 15.31 14.59 15.24 14.44 15.09L11.88 12.53C11.59 12.24 11.59 11.76 11.88 11.47L14.44 8.91C14.73 8.62 15.21 8.62 15.5 8.91C15.79 9.2 15.79 9.68 15.5 9.97L13.48 12L15.5 14.03Z" />
</svg>

<?xml version="1.0" encoding="UTF-8"?>
<svg width="24" height="24" viewBox="0 0 24 24" xmlns="http://www.w3.org/2000/svg">
 <path d="m2 7.8103v8.38c0 1.49 0.36 2.73 1.05 3.68 0.29 0.42 0.66 0.79 1.08 1.08 0.82 0.6 1.86 0.95 3.09 1.03v-19.95c-3.28 0.21-5.22 2.34-5.22 5.78z"/>
 <path d="m20.95 4.13c-0.29-0.42-0.66-0.79-1.08-1.08-0.95-0.69-2.19-1.05-3.68-1.05h-7.47v20h7.47c3.64 0 5.81-2.17 5.81-5.81v-8.38c0-1.49-0.36-2.73-1.05-3.68zm-5.45 9.9c0.29 0.29 0.29 0.77 0 1.06-0.15 0.15-0.34 0.22-0.53 0.22s-0.38-0.07-0.53-0.22l-2.56-2.56c-0.29-0.29-0.29-0.77 0-1.06l2.56-2.56c0.29-0.29 0.77-0.29 1.06 0s0.29 0.77 0 1.06l-2.02 2.03 2.02 2.03z"/>
</svg>
